style-guide/assets/xd-icons-message-small.svg

<svg viewBox="0 0 18 18" xmlns="http://www.w3.org/2000/svg">
  <path d="M15 10c0 .551-.449 1-1 1H9a.997.997 0 0 0-.707.293L6 13.586V12a1 1 0 0 0-1-1H4c-.551 0-1-.449-1-1V4c0-.551.449-1 1-1h10c.551 0 1 .449 1 1v6zm-1-9H4C2.346 1 1 2.346 1 4v6c0 1.654 1.346 3 3 3v3a1 1 0 0 0 1.707.707L9.414 13H14c1.654 0 3-1.346 3-3V4c0-1.654-1.346-3-3-3zm-2 5H6a1 1 0 1 0 0 2h6a1 1 0 1 0 0-2" fill="#000" fill-rule="evenodd"/>
</svg>

<?xml version="1.0" encoding="UTF-8"?>
<svg width="18px" height="18px" viewBox="0 0 18 18" version="1.1" xmlns="http://www.w3.org/2000/svg" xmlns:xlink="http://www.w3.org/1999/xlink">
    <!-- Generator: Sketch 51.3 (57544) - http://www.bohemiancoding.com/sketch -->
    <title>bubble</title>
    <desc>Created with Sketch.</desc>
    <defs></defs>
    <g id="bubble" stroke="none" stroke-width="1" fill="none" fill-rule="evenodd">
        <path d="M15,10 C15,10.551 14.551,11 14,11 L9,11 C8.735,11 8.48,11.105 8.293,11.293 L6,13.586 L6,12 C6,11.447 5.552,11 5,11 L4,11 C3.449,11 3,10.551 3,10 L3,4 C3,3.449 3.449,3 4,3 L14,3 C14.551,3 15,3.449 15,4 L15,10 Z M14,1 L4,1 C2.346,1 1,2.346 1,4 L1,10 C1,11.654 2.346,13 4,13 L4,16 C4,16.404 4.244,16.77 4.617,16.924 C4.741,16.975 4.871,17 5,17 C5.26,17 5.516,16.898 5.707,16.707 L9.414,13 L14,13 C15.654,13 17,11.654 17,10 L17,4 C17,2.346 15.654,1 14,1 Z M12,6 L6,6 C5.448,6 5,6.447 5,7 C5,7.553 5.448,8 6,8 L12,8 C12.552,8 13,7.553 13,7 C13,6.447 12.552,6 12,6" id="Fill-3" fill="#000000"></path>
    </g>
</svg>
